X: 619
T: Düşme Ey Âşık Hayâle
C: Nikoğos Ağa
O: Turkey
F: http://compmusic.upf.edu/node/140
N: isfahan--sarki--musemmen--dusme_ey_asik--nikogos_aga
N: makam= isfahan
N: form= sarki
N: usul= musemmen = 8/8
M: 8/8
L: 1/16
K: C _2/4B   
Q: 1/4=144
%%MIDI tuningsystem comma53
G4 d2d2 c2d6  | d4 e2{f}e2 d2{e}d2 c2B2  | \
w:  Düş me  ey  *  â  |  şık  ha *  yâ *  *  le   | 
g2^3/4f2 e2a2 g2=f2 e2d2  | {d}e2d2 c2d8z2  | 
w:  yağ *  *  *  *  *  *  ma   |  *  yok    | 
d2c2 d2e2 ^3/4f2g2 a2g2  | {a}g2^1/4f2 e2e2 d2{e}d2 c2B2  | \
w:  Yağ *  ma  yok  *  hân_  |  *  i  *  vi sâ *  *  le   | 
d2c2 d2f2 e2d4B2  | 
w:  yağ *  *  *  *  *  ma   | 
c4 d2{e}d2 c2c4B2  | c2B2 c2d4e4d2  | \
w:  yok    |  Yağ *  ma  yok  hân_  | 
g4 fee3/2f/ edd2 c2B2  | 
w:  i  vi *  sâ *  *  *  le   | 
cdc2 d2e2 d2d3cB2  | B2A2 {c}BAA4c6  | \
w:  yağ *  *  *  *  *  *  *  ma   |  yok   *  *  *  *  *  SAZ  | 
G4 c2c4c4B2  | B4 A2B2 c2A4z2  | 
w:  Ey le me  bey  |  hû de  nâ *  le   | 
g2^3/4f2 g2a2 g2^1/4f2 e2d2  | {d}e2d2 c2d4d4z2  | \
w:  yağ *  *  *  *  *  *  ma   |  *  yok    | 
d2c2 d2e2 ^3/4f2g2 a2g2  | 
w:  Yağ *  ma  yok  *  hân_  | 
{a}g2^1/4f2 e2e2 d2{e}d2 c2B2  | d2c2 d2f2 e2d4B2  | \
w:  *  i  *  vi sâ *  *  le   |  yağ *  *  *  *  *  ma   | 
c4 d2{e}d2 c2c4B2  | 
w:  yok    | 
c2B2 c2d4e4d2  | g4 fee3/2f/ edd2 c2B2  | \
w:  Yağ *  ma  yok  hân_  |  i  vi *  sâ *  *  *  le   | 
cdc2 d2e2 d2d3cB2  | 
w:  yağ *  *  *  *  *  *  *  ma   | 
B2A2 {c}BAA4|
w:  yok    | 


